src/assets/images/landig/person.svg

<svg width="56" height="56" viewBox="0 0 56 56" fill="none" xmlns="http://www.w3.org/2000/svg">
<path d="M31.9192 24.9944C33.2158 26.0196 34.2319 27.5036 34.4453 29.1718C34.5857 31.2952 34.237 33.0476 32.8061 34.7035C32.5218 35.0058 32.2376 35.2693 31.9062 35.5195C31.8418 35.5195 31.7773 35.5195 31.7109 35.5195C31.7109 35.5839 31.7109 35.6484 31.7109 35.7148C31.7925 35.7241 31.8741 35.7334 31.9581 35.743C33.7323 36.1066 35.4206 37.6132 36.4194 39.0542C37.5163 40.7822 37.977 42.4835 37.9853 44.5222C37.9883 44.7083 37.9883 44.7083 37.9914 44.8981C37.9922 45.0766 37.9922 45.0766 37.993 45.2588C37.9939 45.3669 37.9948 45.4751 37.9957 45.5865C37.9556 45.9144 37.8979 46.0283 37.6679 46.2617C37.4234 46.3113 37.4234 46.3113 37.1284 46.3122C36.9626 46.3141 36.9626 46.3141 36.7936 46.3159C36.6742 46.3152 36.5549 46.3144 36.432 46.3136C36.3095 46.3139 36.1871 46.3143 36.0609 46.3147C35.8018 46.315 35.5428 46.3144 35.2837 46.3126C34.9517 46.3104 34.6198 46.3117 34.2877 46.314C33.971 46.3157 33.6542 46.3145 33.3375 46.3136C33.2182 46.3143 33.0988 46.3151 32.9759 46.3159C32.8654 46.3147 32.7549 46.3135 32.6411 46.3122C32.5438 46.3119 32.4464 46.3116 32.3461 46.3113C32.1015 46.2617 32.1015 46.2617 31.9236 46.0815C31.7672 45.7954 31.7684 45.6067 31.8086 45.2851C31.93 45.0743 31.93 45.0743 32.1015 44.8945C32.3036 44.8475 32.3036 44.8475 32.5382 44.8501C32.6262 44.8502 32.7141 44.8502 32.8047 44.8502C32.8994 44.8522 32.994 44.8543 33.0914 44.8563C33.2371 44.8572 33.2371 44.8572 33.3858 44.858C33.6963 44.8602 34.0067 44.8651 34.3171 44.8701C34.5275 44.872 34.7379 44.8738 34.9483 44.8754C35.4642 44.8797 35.9801 44.8863 36.4961 44.8945C36.4837 44.6341 36.4704 44.3739 36.4568 44.1136C36.4534 44.041 36.45 43.9684 36.4465 43.8937C36.3538 42.1785 35.7012 40.5099 34.5429 39.2304C34.4597 39.1337 34.4597 39.1337 34.3747 39.0351C33.2804 37.8455 31.62 36.9991 30.0044 36.8669C29.7458 36.8579 29.4878 36.8545 29.2291 36.8539C29.1341 36.8532 29.0391 36.8526 28.9412 36.8519C28.7411 36.8509 28.541 36.8504 28.341 36.8505C28.0394 36.8501 27.738 36.8465 27.4365 36.8428C25.3247 36.8306 23.5536 37.2882 21.9453 38.7421C21.8762 38.8033 21.8071 38.8645 21.7359 38.9275C20.0399 40.5165 19.6056 42.6792 19.5039 44.8945C19.5583 44.8936 19.6127 44.8927 19.6687 44.8919C20.2343 44.8832 20.7998 44.8773 21.3653 44.873C21.5765 44.8711 21.7876 44.8684 21.9988 44.865C22.302 44.8603 22.6052 44.8581 22.9085 44.8563C23.0031 44.8543 23.0977 44.8523 23.1952 44.8502C23.3271 44.8502 23.3271 44.8502 23.4617 44.8501C23.5392 44.8493 23.6166 44.8484 23.6963 44.8475C23.8984 44.8945 23.8984 44.8945 24.0699 45.0743C24.2347 45.3603 24.232 45.5458 24.1914 45.871C24.0763 46.0815 24.0763 46.0815 23.8984 46.2617C23.6538 46.3113 23.6538 46.3113 23.3588 46.3122C23.1931 46.3141 23.1931 46.3141 23.024 46.3159C22.9047 46.3152 22.7854 46.3144 22.6624 46.3136C22.54 46.3139 22.4176 46.3143 22.2914 46.3147C22.0323 46.315 21.7733 46.3144 21.5142 46.3126C21.1821 46.3104 20.8502 46.3117 20.5182 46.314C20.2014 46.3157 19.8847 46.3145 19.568 46.3136C19.4486 46.3143 19.3293 46.3151 19.2064 46.3159C19.0959 46.3147 18.9854 46.3135 18.8716 46.3122C18.7742 46.3119 18.6769 46.3116 18.5766 46.3113C18.332 46.2617 18.332 46.2617 18.1542 46.0802C18.0021 45.8039 18.0011 45.6009 18.0001 45.2863C17.9995 45.1716 17.9989 45.0569 17.9983 44.9388C17.9997 44.8174 18.001 44.696 18.0024 44.571C18.0033 44.4472 18.0043 44.3234 18.0052 44.1958C18.0454 41.7011 18.9617 39.5209 20.7051 37.7301C21.5725 36.9082 23.0413 35.7148 24.289 35.7148C24.289 35.6503 24.289 35.5859 24.289 35.5195C24.232 35.4929 24.175 35.4664 24.1162 35.439C22.9341 34.8158 22.1431 33.4306 21.75 32.1992C21.2515 30.4352 21.4829 28.5772 22.3287 26.9707C23.1999 25.464 24.6242 24.421 26.2788 23.9106C28.2443 23.4787 30.2745 23.8275 31.9192 24.9944ZM24.2486 26.8288C23.2133 28.1293 22.8473 29.4852 23.0195 31.125C23.2553 32.4295 23.9597 33.542 25.018 34.332C26.2616 35.1759 27.5702 35.4702 29.0479 35.2055C30.3641 34.8895 31.3993 34.166 32.1992 33.0781C32.9649 31.7912 33.1777 30.4777 32.9167 29.0086C32.5755 27.7841 31.8635 26.7104 30.7632 26.0436C28.635 24.8516 25.9916 24.9158 24.2486 26.8288Z" fill="#A47087"/>
<path d="M27.2494 44.8556C27.3705 44.8553 27.4916 44.8549 27.6163 44.8545C27.8063 44.8562 27.8063 44.8562 28.0001 44.8579C28.1267 44.8568 28.2534 44.8557 28.3839 44.8545C28.505 44.8549 28.6261 44.8552 28.7508 44.8556C28.862 44.856 28.9731 44.8563 29.0877 44.8566C29.3673 44.8945 29.3673 44.8945 29.5499 45.0316C29.6875 45.226 29.6996 45.3414 29.6969 45.5781C29.698 45.6778 29.698 45.6778 29.6992 45.7796C29.6469 46.0336 29.5749 46.1059 29.3673 46.2617C29.0877 46.2996 29.0877 46.2996 28.7508 46.3006C28.6297 46.301 28.5086 46.3014 28.3839 46.3018C28.1939 46.3001 28.1939 46.3001 28.0001 46.2984C27.8735 46.2995 27.7468 46.3006 27.6163 46.3018C27.4952 46.3014 27.3741 46.301 27.2494 46.3006C27.1382 46.3003 27.027 46.3 26.9125 46.2996C26.6329 46.2617 26.6329 46.2617 26.4503 46.1246C26.3127 45.9303 26.3006 45.8148 26.3033 45.5781C26.3026 45.5117 26.3018 45.4452 26.301 45.3767C26.4077 44.8579 26.7858 44.857 27.2494 44.8556Z" fill="#A47087"/>
<path d="M37.7657 20.2851C37.961 20.4438 37.961 20.4438 38.0587 20.6757C38.05 21.2252 37.9027 21.4908 37.5297 21.8659C37.4727 21.9203 37.4156 21.9747 37.3568 22.0307C37.3016 22.0873 37.2464 22.144 37.1895 22.2024C36.8471 22.5381 36.6058 22.7165 36.1055 22.7265C35.8309 22.6288 35.8309 22.6288 35.6172 22.4335C35.4952 22.1222 35.4952 22.1222 35.5196 21.7499C35.7099 21.451 35.9501 21.215 36.2032 20.9687C36.2663 20.9033 36.3293 20.838 36.3943 20.7707C36.8712 20.2798 37.0534 20.1226 37.7657 20.2851Z" fill="#A47087"/>
<path d="M19.1133 20.2852C19.3607 20.4625 19.5673 20.6709 19.7786 20.8894C19.8357 20.9446 19.8927 20.9998 19.9516 21.0567C20.29 21.399 20.4712 21.6379 20.4805 22.1406C20.3828 22.4153 20.3828 22.4153 20.1875 22.6289C19.8762 22.751 19.8762 22.751 19.5039 22.7266C19.2048 22.5362 18.9703 22.2949 18.7227 22.043C18.6573 21.9856 18.592 21.9282 18.5247 21.869C18.208 21.5841 18.056 21.4149 17.9292 20.9993C17.9426 20.6451 17.9772 20.5239 18.2344 20.2852C18.5947 20.1651 18.7484 20.1782 19.1133 20.2852Z" fill="#A47087"/>
<path d="M14.9355 29.5236C15.0346 29.5232 15.1337 29.5229 15.2358 29.5225C15.3391 29.5236 15.4425 29.5247 15.5489 29.5259C15.6523 29.5248 15.7556 29.5236 15.8621 29.5225C16.0107 29.523 16.0107 29.523 16.1623 29.5236C16.2984 29.5241 16.2984 29.5241 16.4372 29.5246C16.714 29.5693 16.7979 29.6346 16.965 29.8555C17.0813 30.1712 17.0839 30.2956 16.9467 30.6062C16.7516 30.855 16.6727 30.9209 16.379 31.0274C16.1 31.0487 15.8338 31.0591 15.5551 31.0579C15.4451 31.0602 15.4451 31.0602 15.3328 31.0626C14.8825 31.063 14.6013 31.0165 14.2306 30.7344C14.0477 30.5515 14.1099 30.2952 14.1009 30.0516C14.1786 29.5763 14.5075 29.5252 14.9355 29.5236Z" fill="#A47087"/>
<path d="M39.8379 29.5236C39.937 29.5232 40.036 29.5229 40.1381 29.5225C40.2415 29.5236 40.3448 29.5247 40.4513 29.5259C40.5546 29.5248 40.658 29.5236 40.7645 29.5225C40.9131 29.523 40.9131 29.523 41.0647 29.5236C41.2007 29.5241 41.2007 29.5241 41.3395 29.5246C41.615 29.5691 41.7017 29.635 41.8673 29.8555C41.9216 30.1196 41.9089 30.3709 41.8673 30.6367C41.6904 30.8979 41.5863 30.9257 41.2814 31.0274C41.0074 31.0419 40.7375 31.0499 40.4635 31.0518C40.3897 31.0538 40.316 31.0558 40.24 31.0579C39.7868 31.061 39.5059 31.0195 39.1329 30.7344C38.9501 30.5515 39.0122 30.2952 39.0032 30.0516C39.0809 29.5763 39.4098 29.5252 39.8379 29.5236Z" fill="#A47087"/>
<path d="M28 16.3424C28.0997 16.3412 28.0997 16.3412 28.2014 16.3401C28.4517 16.3916 28.5267 16.4715 28.6836 16.672C28.7485 17.0412 28.7334 17.4146 28.7324 17.7889C28.7352 17.8914 28.738 17.994 28.7408 18.0996C28.7427 18.849 28.7427 18.849 28.4555 19.1843C28.1215 19.344 27.9586 19.3249 27.6094 19.211C27.3863 19.0448 27.3234 18.961 27.2785 18.6833C27.2782 18.5926 27.2779 18.5019 27.2775 18.4084C27.2771 18.3093 27.2768 18.2103 27.2764 18.1082C27.2775 18.0048 27.2786 17.9015 27.2798 17.795C27.2787 17.6917 27.2775 17.5883 27.2764 17.4818C27.2769 17.3332 27.2769 17.3332 27.2775 17.1816C27.2778 17.0909 27.2782 17.0002 27.2785 16.9068C27.348 16.4765 27.5823 16.3376 28 16.3424Z" fill="#A47087"/>
<path d="M38.6811 14.8836C38.7927 14.88 38.9042 14.8763 39.0191 14.8726C39.3281 14.9141 39.3281 14.9141 39.5604 15.09C39.7187 15.3048 39.7187 15.3048 39.7737 15.6466C39.7187 15.9884 39.7187 15.9884 39.5478 16.2264C39.0688 16.4567 38.5811 16.4588 38.0586 16.379C37.7606 16.2053 37.6849 16.1379 37.5764 15.8053C37.5692 15.4438 37.6448 15.295 37.8633 15.0118C38.1379 14.8745 38.375 14.8902 38.6811 14.8836Z" fill="#A47087"/>
<path d="M12.6314 36.9844C13.0701 37.1143 13.0701 37.1143 13.254 37.375C13.2998 37.6889 13.2998 37.6889 13.3028 38.0525C13.3058 38.1722 13.3089 38.2919 13.312 38.4153C13.254 38.7422 13.254 38.7422 13.0289 38.9806C12.7657 39.1328 12.7657 39.1328 12.4117 39.1328C12.0406 39.0229 11.9759 38.9712 11.7891 38.6445C11.6989 38.0977 11.6947 37.6244 11.9906 37.1492C12.2774 36.9844 12.2774 36.9844 12.6314 36.9844Z" fill="#A47087"/>
<path d="M13.2539 13.6445C13.416 13.7532 13.416 13.7532 13.5469 13.9375C13.5892 14.2514 13.5892 14.2514 13.5896 14.615C13.5915 14.7347 13.5934 14.8544 13.5953 14.9778C13.5469 15.3047 13.5469 15.3047 13.3668 15.5397C13.1563 15.6953 13.1563 15.6953 12.8694 15.7502C12.5703 15.6953 12.5703 15.6953 12.2896 15.5183C11.9873 15.0649 12.008 14.6629 12.082 14.1328C12.2102 13.8276 12.2102 13.8276 12.375 13.6445C12.7217 13.529 12.9023 13.5566 13.2539 13.6445Z" fill="#A47087"/>
<path d="M40.5611 12.7595C40.9293 12.8754 40.9972 12.9283 41.1837 13.2539C41.274 13.8008 41.2782 14.2741 40.9823 14.7493C40.6954 14.9141 40.6954 14.9141 40.3414 14.9141C39.9073 14.7854 39.9073 14.7854 39.7189 14.5234C39.6282 13.9506 39.6145 13.4246 39.9203 12.9243C40.2071 12.7656 40.2071 12.7656 40.5611 12.7595Z" fill="#A47087"/>
<path d="M13.1562 10.0312C13.3667 10.1868 13.3667 10.1868 13.5468 10.4218C13.5952 10.7487 13.5952 10.7487 13.5895 11.1115C13.5894 11.2315 13.5893 11.3515 13.5891 11.4751C13.5468 11.789 13.5468 11.789 13.4152 11.9725C13.166 12.1416 12.9669 12.1677 12.6679 12.1796C12.3932 12.0576 12.3932 12.0576 12.1796 11.8867C12.0287 11.434 12.0213 10.9917 12.0819 10.5195C12.3772 10.0766 12.6261 9.9297 13.1562 10.0312Z" fill="#A47087"/>
<path d="M13.0585 40.6953C13.2885 41.0403 13.2858 41.2077 13.2905 41.6169C13.2932 41.7276 13.296 41.8382 13.2989 41.9522C13.2538 42.2578 13.2538 42.2578 13.0776 42.4897C12.8632 42.6484 12.8632 42.6484 12.5214 42.7034C12.1796 42.6484 12.1796 42.6484 11.9416 42.4775C11.7125 42.001 11.6919 41.5072 11.789 40.9883C12.1866 40.4905 12.482 40.45 13.0585 40.6953Z" fill="#A47087"/>
<path d="M40.7931 16.3788C41.0841 16.595 41.1736 16.7108 41.2356 17.0716C41.2346 17.1813 41.2336 17.2911 41.2325 17.4042C41.2336 17.514 41.2346 17.6238 41.2356 17.7369C41.1736 18.0976 41.0841 18.2134 40.7931 18.4296C40.4153 18.4836 40.2073 18.5022 39.8959 18.2709C39.6648 17.9682 39.6666 17.7818 39.67 17.4042C39.6685 17.2396 39.6685 17.2396 39.667 17.0716C39.7791 16.4189 40.1798 16.2912 40.7931 16.3788Z" fill="#A47087"/>
<path d="M42.209 14.8715C42.3188 14.8716 42.4285 14.8717 42.5416 14.8718C42.8666 14.9174 43.0023 14.98 43.2344 15.2071C43.37 15.5417 43.3408 15.6725 43.21 16.0128C43.0391 16.2814 43.0391 16.2814 42.7461 16.379C42.2473 16.4261 41.816 16.4497 41.3606 16.2264C41.1836 15.9884 41.1836 15.9884 41.1287 15.6466C41.2342 14.9898 41.5823 14.8607 42.209 14.8715Z" fill="#A47087"/>
<path d="M14.3281 39.0778C14.447 39.0756 14.5658 39.0735 14.6882 39.0713C15.0117 39.1327 15.0117 39.1327 15.2501 39.3612C15.4023 39.621 15.4023 39.621 15.3962 39.9262C15.3041 40.2087 15.2484 40.327 15.0117 40.4999C14.5152 40.6654 14.0261 40.6829 13.5469 40.4633C13.2885 40.2534 13.2595 40.1605 13.2234 39.8285C13.2539 39.5233 13.2539 39.5233 13.4084 39.3124C13.7247 39.0717 13.934 39.0774 14.3281 39.0778Z" fill="#A47087"/>
<path d="M10.7638 39.0901C10.8299 39.0882 10.896 39.0862 10.9641 39.0842C11.2784 39.0845 11.4513 39.0912 11.6862 39.3091C11.8367 39.6225 11.8265 39.8648 11.7892 40.2071C11.6104 40.4625 11.505 40.4971 11.2032 40.5977C10.6718 40.6495 10.2725 40.6457 9.83606 40.3047C9.65318 40.1219 9.71535 39.8655 9.70636 39.6219C9.7384 39.4258 9.7384 39.4258 9.84063 39.2568C10.1323 39.0673 10.4274 39.0866 10.7638 39.0901Z" fill="#A47087"/>
<path d="M14.6272 12.1431C14.7472 12.1443 14.8671 12.1456 14.9907 12.1469C15.3047 12.1797 15.3047 12.1797 15.5977 12.375C15.6793 12.714 15.7302 12.9567 15.616 13.2905C15.5 13.4492 15.5 13.4492 15.3047 13.5469C15.0813 13.564 14.8573 13.573 14.6333 13.5774C14.5127 13.5811 14.3921 13.5847 14.2679 13.5885C13.9375 13.5469 13.9375 13.5469 13.7018 13.368C13.5469 13.1563 13.5469 13.1563 13.498 12.8633C13.6081 12.2033 14.0208 12.1291 14.6272 12.1431Z" fill="#A47087"/>
<path d="M11.0567 12.143C11.1559 12.1413 11.1559 12.1413 11.257 12.1396C11.5377 12.1412 11.7409 12.148 11.9791 12.304C12.1024 12.5057 12.1214 12.6276 12.1187 12.8632C12.1195 12.9297 12.1203 12.9961 12.121 13.0646C12.0821 13.2538 12.0821 13.2538 11.9791 13.4224C11.6881 13.6129 11.3927 13.5892 11.0567 13.5834C10.9906 13.5845 10.9246 13.5857 10.8565 13.5868C10.5758 13.5852 10.3726 13.5784 10.1343 13.4224C10.0111 13.2207 9.99204 13.0988 9.99472 12.8632C9.99397 12.7967 9.99321 12.7303 9.99243 12.6618C10.0313 12.4726 10.0313 12.4726 10.1343 12.304C10.4254 12.1135 10.7208 12.1372 11.0567 12.143Z" fill="#A47087"/>
<circle cx="28" cy="28" r="27.5" stroke="#A47087"/>
</svg>

<svg xmlns="http://www.w3.org/2000/svg" width="56" height="56" fill="none"><path fill="#A47087" d="M31.92 24.994c1.296 1.026 2.312 2.51 2.525 4.178.14 2.123-.208 3.876-1.639 5.531a7.017 7.017 0 0 1-.9.816h-.195v.196l.247.028c1.774.364 3.463 1.87 4.461 3.311 1.097 1.728 1.558 3.43 1.566 5.468l.006.376a2642.303 2642.303 0 0 1 .005.688c-.04.328-.098.442-.328.676-.245.05-.245.05-.54.05l-.334.004-.362-.002h-.371c-.26.001-.518 0-.777-.001-.332-.003-.664-.001-.996.001-.317.002-.634 0-.95 0l-.362.002-.335-.004h-.295c-.244-.05-.244-.05-.422-.23-.157-.287-.156-.475-.115-.797.121-.21.121-.21.293-.39.202-.048.202-.048.436-.045h.267l.286.006.295.002c.31.002.62.007.931.012l.631.005c.516.005 1.032.011 1.548.02a169.324 169.324 0 0 0-.05-1.001c-.092-1.715-.745-3.384-1.903-4.664l-.168-.195c-1.095-1.19-2.755-2.036-4.37-2.168a23.86 23.86 0 0 0-.776-.013l-.288-.002-.6-.002c-.302 0-.603-.004-.905-.007-2.111-.012-3.882.445-5.49 1.9-.07.06-.139.121-.21.184-1.696 1.59-2.13 3.752-2.232 5.968l.165-.003c.565-.009 1.13-.015 1.696-.019l.634-.008c.303-.005.606-.007.91-.009l.286-.006h.267l.234-.003c.202.047.202.047.374.227.165.286.162.472.121.797-.115.21-.115.21-.293.39-.244.05-.244.05-.54.051l-.334.004-.362-.002h-.37c-.26.001-.519 0-.778-.001-.332-.003-.664-.001-.996.001-.317.002-.633 0-.95 0l-.362.002-.334-.004h-.295c-.245-.05-.245-.05-.423-.232-.152-.276-.153-.48-.154-.794l-.002-.347.004-.368.003-.375c.04-2.495.957-4.675 2.7-6.466.868-.822 2.336-2.015 3.584-2.015v-.196l-.173-.08c-1.182-.623-1.973-2.008-2.366-3.24-.498-1.764-.267-3.622.579-5.228.87-1.507 2.295-2.55 3.95-3.06 1.965-.432 3.995-.084 5.64 1.083Zm-7.671 1.835c-1.036 1.3-1.402 2.656-1.23 4.296a5.088 5.088 0 0 0 1.999 3.207c1.244.844 2.552 1.138 4.03.873 1.316-.316 2.351-1.039 3.151-2.127.766-1.287.979-2.6.718-4.07-.342-1.224-1.054-2.298-2.154-2.964-2.128-1.192-4.771-1.128-6.514.785Z"/><path fill="#A47087" d="m27.25 44.856.366-.002.384.004.384-.003h.367l.337.002c.28.038.28.038.462.175.137.194.15.31.147.546l.002.202c-.052.254-.124.326-.332.482-.28.038-.28.038-.616.039h-.367c-.19 0-.19 0-.384-.003l-.384.004-.367-.001-.336-.001c-.28-.038-.28-.038-.463-.175-.137-.195-.15-.31-.147-.547l-.002-.201c.107-.52.485-.52.948-.521ZM37.766 20.285c.195.159.195.159.293.39-.009.55-.156.816-.53 1.19l-.172.166-.167.171c-.343.336-.584.514-1.084.524-.275-.097-.275-.097-.489-.293-.122-.31-.122-.31-.097-.683.19-.299.43-.535.683-.781l.191-.198c.477-.491.66-.648 1.372-.486ZM19.113 20.285c.248.177.454.386.666.604l.173.168c.338.342.52.58.528 1.084-.097.274-.097.274-.293.488-.31.122-.31.122-.683.098-.3-.19-.534-.432-.781-.684l-.198-.174c-.317-.285-.469-.454-.596-.87.014-.354.048-.475.305-.714.36-.12.514-.107.88 0ZM14.935 29.524l.3-.002.314.004.313-.003h.3l.275.002c.277.044.36.11.528.33.116.316.119.44-.018.751-.195.249-.274.315-.568.421-.279.022-.545.032-.824.03l-.222.006c-.45 0-.732-.046-1.102-.329-.183-.183-.121-.439-.13-.682.078-.476.406-.527.834-.528ZM39.838 29.524l.3-.002.313.004.313-.003h.3l.276.002c.275.044.362.11.527.33a2.14 2.14 0 0 1 0 .782c-.177.26-.28.289-.586.39-.274.015-.544.023-.817.025l-.224.006c-.453.003-.734-.038-1.107-.324-.183-.183-.12-.439-.13-.682.078-.476.407-.527.835-.528ZM28 16.342l.201-.002c.25.052.326.131.483.332.064.37.05.743.048 1.117l.009.31c.002.75.002.75-.285 1.085-.334.16-.497.14-.847.027-.223-.166-.286-.25-.33-.528l-.002-.275v-.3l.003-.313-.004-.313.002-.3v-.275c.07-.43.304-.57.722-.565ZM38.681 14.884l.338-.011c.31.041.31.041.541.217.159.215.159.215.214.557-.055.341-.055.341-.226.58-.48.23-.967.232-1.49.152-.297-.174-.373-.241-.482-.574-.007-.361.069-.51.287-.793.275-.138.512-.122.818-.128ZM12.631 36.984c.44.13.44.13.623.391.046.314.046.314.049.678l.009.362c-.058.327-.058.327-.283.566-.263.152-.263.152-.617.152-.371-.11-.436-.162-.623-.489-.09-.546-.094-1.02.202-1.495.286-.165.286-.165.64-.165ZM13.254 13.645c.162.108.162.108.293.293.042.313.042.313.043.677l.005.363c-.048.327-.048.327-.228.562-.21.155-.21.155-.498.21-.299-.055-.299-.055-.58-.232-.302-.453-.281-.855-.207-1.385.128-.305.128-.305.293-.488.347-.116.527-.088.879 0ZM40.561 12.76c.368.115.436.168.623.494.09.547.094 1.02-.202 1.495-.287.165-.287.165-.64.165-.435-.129-.435-.129-.623-.39-.09-.573-.105-1.1.201-1.6.287-.158.287-.158.641-.165ZM13.156 10.031c.21.156.21.156.39.39.05.328.05.328.043.69v.364c-.042.314-.042.314-.174.498-.249.169-.448.195-.747.207-.275-.122-.275-.122-.488-.293-.151-.453-.159-.895-.098-1.367.295-.443.544-.59 1.074-.489ZM13.059 40.695c.23.345.227.513.232.922l.008.335c-.045.306-.045.306-.221.538-.215.158-.215.158-.557.213-.341-.055-.341-.055-.58-.226-.229-.476-.25-.97-.152-1.489.398-.498.693-.538 1.27-.293ZM40.793 16.379c.291.216.38.332.443.693l-.003.332.003.333c-.062.36-.152.476-.443.693-.378.054-.586.072-.897-.16-.231-.302-.23-.488-.226-.866l-.003-.332c.112-.653.513-.78 1.126-.693ZM42.209 14.871h.333c.325.046.46.109.692.336.136.335.107.465-.024.806-.17.268-.17.268-.464.366-.499.047-.93.07-1.385-.153-.177-.238-.177-.238-.232-.58.105-.656.453-.785 1.08-.775ZM14.328 39.078l.36-.007c.324.062.324.062.562.29.152.26.152.26.146.565-.092.283-.148.401-.384.574-.497.165-.986.183-1.465-.037-.258-.21-.288-.303-.324-.635.03-.305.03-.305.185-.516.317-.24.526-.235.92-.234ZM10.764 39.09l.2-.006c.314 0 .487.007.722.225.15.314.14.556.103.898-.179.255-.284.29-.586.39-.531.053-.93.049-1.367-.292-.183-.183-.12-.44-.13-.683.032-.196.032-.196.135-.365.291-.19.586-.17.923-.167ZM14.627 12.143l.364.004c.314.033.314.033.607.228.081.339.132.582.018.915-.116.16-.116.16-.311.257-.224.017-.448.026-.672.03l-.365.011c-.33-.041-.33-.041-.566-.22-.155-.212-.155-.212-.204-.505.11-.66.523-.734 1.13-.72ZM11.057 12.143l.2-.003c.28.001.484.008.722.164.123.202.142.324.14.56l.002.2c-.039.19-.039.19-.142.358-.29.19-.586.167-.922.161l-.2.004c-.281-.002-.484-.009-.723-.165-.123-.201-.142-.323-.14-.559 0-.066 0-.133-.002-.201.04-.19.04-.19.142-.358.291-.19.587-.167.923-.161Z"/><circle cx="28" cy="28" r="27.5" stroke="#A47087"/></svg>
